images/Services/Vakcine.svg

<?xml-stylesheet type="text/css" href="./css/style.min.css"?>
<svg width="89" height="116" viewBox="0 0 89 116"  xmlns="http://www.w3.org/2000/svg">
<g clip-path="url(#clip0)">
<path d="M74.1435 35.2732L69.5089 32.5974L75.2528 22.6488L75.4173 22.7437C76.2555 23.2252 77.2505 23.3545 78.184 23.1032C79.1175 22.852 79.9132 22.2407 80.3965 21.4035L81.7757 19.0147C82.2564 18.1777 82.3861 17.1843 82.1362 16.2519C81.8864 15.3196 81.2774 14.5241 80.4426 14.0396L63.7781 4.41834C62.9411 3.9376 61.9477 3.80796 61.0153 4.05779C60.083 4.30762 59.2875 4.91657 58.803 5.75142L57.4238 8.14023C56.9405 8.97741 56.8089 9.97213 57.0581 10.9062C57.3072 11.8402 57.9167 12.6373 58.7528 13.1225L58.8958 13.2051L53.152 23.1537L48.5102 20.4738C47.672 19.9924 46.6769 19.8631 45.7435 20.1143C44.81 20.3656 44.0143 20.9769 43.531 21.814L42.1518 24.2028C41.6711 25.0399 41.5414 26.0332 41.7913 26.9656C42.0411 27.898 42.65 28.6934 43.4849 29.178L46.2456 30.7719C46.0596 30.9778 45.8971 31.2039 45.7612 31.4458L24.8256 67.7071C24.2878 68.6648 24.1486 69.7957 24.4381 70.8551C24.7277 71.9146 25.4227 72.8175 26.3728 73.3685L26.9307 73.6906L27.7391 79.3927C27.7754 79.641 27.8678 79.8777 28.0092 80.0849C28.1506 80.2921 28.3374 80.4644 28.5554 80.5887L28.8987 80.7869L15.4 104.167C15.181 104.547 15.1216 104.997 15.235 105.421C15.3484 105.844 15.6252 106.205 16.0046 106.424C16.3839 106.643 16.8348 106.702 17.2579 106.589C17.6811 106.475 18.0418 106.198 18.2609 105.819L31.7471 82.4601L32.0976 82.6624C32.3136 82.7872 32.5551 82.8615 32.8039 82.8797C33.0527 82.8978 33.3025 82.8593 33.5343 82.7672L38.8541 80.6223L39.3834 80.9278C40.3358 81.4778 41.4666 81.6301 42.5305 81.3518C43.5945 81.0735 44.5059 80.387 45.067 79.4412L66.0314 43.1298C66.1692 42.8891 66.2835 42.6358 66.3728 42.3733L69.1264 43.963C69.9636 44.4464 70.9583 44.5779 71.8923 44.3288C72.8264 44.0796 73.6234 43.4702 74.1087 42.6341L75.4796 40.2596C75.9637 39.4212 76.0948 38.4248 75.8443 37.4897C75.5937 36.5545 74.9819 35.7572 74.1435 35.2732ZM60.2561 9.77543L61.6352 7.38662C61.6587 7.34547 61.6906 7.3097 61.7288 7.28165C61.767 7.25359 61.8107 7.23386 61.8569 7.22373C61.9032 7.21361 61.9511 7.21331 61.9976 7.22287C62.044 7.23242 62.0879 7.25161 62.1264 7.2792L78.7909 16.9004C78.867 16.9468 78.9224 17.0208 78.9455 17.1069C78.9686 17.193 78.9576 17.2847 78.9148 17.363L77.5356 19.7518C77.4904 19.8303 77.4162 19.8879 77.329 19.9124C77.2418 19.9369 77.1485 19.9263 77.069 19.8829L60.4045 10.2616C60.3654 10.2391 60.3311 10.2089 60.3039 10.1729C60.2766 10.1369 60.2568 10.0958 60.2456 10.052C60.2344 10.0083 60.2321 9.96272 60.2389 9.91805C60.2456 9.87338 60.2611 9.83051 60.2847 9.79195L60.2561 9.77543ZM61.4886 15.2551L72.1524 21.4119L66.6481 30.9457L56.0128 24.8054L61.4886 15.2551ZM33.0247 79.4214L30.8791 78.1826L30.529 75.8158L35.2137 78.5205L33.0247 79.4214ZM41.0351 78.067L28.0039 70.5434C27.9042 70.4923 27.816 70.4215 27.7445 70.3352C27.6731 70.249 27.6199 70.149 27.5883 70.0416C27.5567 69.9341 27.5472 69.8213 27.5606 69.7101C27.5739 69.5989 27.6097 69.4916 27.6659 69.3946L45.938 37.7464L60.4783 46.1412L57.245 51.7414L53.669 49.6767C53.2896 49.4577 52.8388 49.3983 52.4156 49.5117C51.9925 49.6251 51.6317 49.9019 51.4127 50.2813C51.1937 50.6607 51.1343 51.1115 51.2477 51.5346C51.3611 51.9578 51.6379 52.3185 52.0173 52.5376L55.5933 54.6022L53.1157 58.8935L49.5397 56.8289C49.1603 56.6098 48.7095 56.5505 48.2863 56.6639C47.8632 56.7772 47.5024 57.0541 47.2834 57.4334C47.0644 57.8128 47.005 58.2637 47.1184 58.6868C47.2318 59.1099 47.5086 59.4707 47.888 59.6897L51.464 61.7544L48.9865 66.0457L45.4104 63.981C45.031 63.762 44.5802 63.7026 44.157 63.816C43.7339 63.9294 43.3731 64.2062 43.1541 64.5856C42.9351 64.965 42.8757 65.4158 42.9891 65.8389C43.1025 66.2621 43.3793 66.6228 43.7587 66.8419L47.3347 68.9065L44.8572 73.1978L41.2811 71.1332C40.9017 70.9141 40.4509 70.8548 40.0277 70.9681C39.6046 71.0815 39.2438 71.3583 39.0248 71.7377C38.8058 72.1171 38.7464 72.5679 38.8598 72.9911C38.9732 73.4142 39.25 73.775 39.6294 73.994L43.2055 76.0587L42.2351 77.7394C42.179 77.8409 42.1031 77.9302 42.012 78.0019C41.9208 78.0736 41.8162 78.1262 41.7043 78.1568C41.5924 78.1873 41.4756 78.1951 41.3606 78.1797C41.2457 78.1643 41.135 78.1259 41.0351 78.067ZM63.1706 41.478L62.13 43.2804L47.5897 34.8855L48.6303 33.0832C48.7112 32.9231 48.842 32.7938 49.003 32.7147C49.1639 32.6355 49.3462 32.611 49.5224 32.6446L63.1115 40.4903C63.2267 40.6265 63.2947 40.7963 63.3053 40.9743C63.316 41.1524 63.2687 41.3291 63.1706 41.478ZM71.2396 40.9967C71.1924 41.074 71.1169 41.1299 71.0291 41.1522C70.9413 41.1746 70.8483 41.1618 70.7699 41.1165L65.0482 37.813C64.8858 37.6745 64.7127 37.5491 64.5305 37.4379L51.4707 29.8978C51.2856 29.797 51.0928 29.7112 50.8941 29.6412L45.1724 26.3377C45.1289 26.3179 45.09 26.2893 45.0581 26.2537C45.0262 26.2182 45.002 26.1764 44.987 26.131C44.972 26.0857 44.9665 26.0377 44.971 25.9901C44.9754 25.9425 44.9896 25.8964 45.0127 25.8546L46.3918 23.4657C46.4371 23.3873 46.5113 23.3297 46.5985 23.3052C46.6857 23.2807 46.779 23.2912 46.8585 23.3347L72.4918 38.134C72.5312 38.1568 72.5658 38.1871 72.5935 38.2233C72.6213 38.2594 72.6416 38.3007 72.6534 38.3447C72.6652 38.3887 72.6682 38.4345 72.6622 38.4797C72.6563 38.5249 72.6415 38.5684 72.6187 38.6079L71.2396 40.9967Z" fill="#87AD3B"/>
</g>
<defs>
<clipPath id="clip0">
<rect width="36.8911" height="112.251" fill="white" transform="translate(56.1253) rotate(30)"/>
</clipPath>
</defs>
</svg>

<?xml-stylesheet type="text/css" href="/css/style.min.css"?><svg viewBox="0 0 89 116" xmlns="http://www.w3.org/2000/svg"><g clip-path="url(#clip0)"><path d="M74.144 35.273l-4.635-2.676 5.744-9.948.164.095a3.65 3.65 0 004.98-1.34l1.379-2.39a3.65 3.65 0 00-1.333-4.974L63.778 4.418a3.65 3.65 0 00-4.975 1.333l-1.38 2.39a3.65 3.65 0 001.33 4.982l.143.082-5.744 9.949-4.642-2.68a3.65 3.65 0 00-4.979 1.34l-1.38 2.389a3.65 3.65 0 001.334 4.975l2.76 1.594a3.733 3.733 0 00-.484.674L24.826 67.707a4.18 4.18 0 001.547 5.662l.558.322.808 5.702a1.652 1.652 0 00.816 1.196l.344.198-13.499 23.38a1.653 1.653 0 001.858 2.422 1.656 1.656 0 001.003-.77L31.747 82.46l.35.202a1.653 1.653 0 001.437.105l5.32-2.145.53.306a4.179 4.179 0 005.683-1.487L66.031 43.13c.138-.24.252-.494.342-.757l2.753 1.59a3.65 3.65 0 004.983-1.329l1.37-2.374a3.65 3.65 0 00-1.335-4.987zM60.256 9.775l1.38-2.388a.339.339 0 01.49-.108L78.791 16.9a.347.347 0 01.124.463l-1.38 2.389a.346.346 0 01-.466.13l-16.665-9.62a.337.337 0 01-.12-.47l-.028-.017zm1.233 5.48l10.663 6.157-5.504 9.534-10.635-6.14 5.476-9.55zM33.025 79.421l-2.146-1.238-.35-2.367 4.685 2.704-2.19.901zm8.01-1.354l-13.031-7.524a.826.826 0 01-.338-1.148l18.272-31.649 14.54 8.395-3.233 5.6-3.576-2.064a1.652 1.652 0 00-1.652 2.86l3.576 2.065-2.477 4.292-3.576-2.065a1.651 1.651 0 10-1.652 2.86l3.576 2.065-2.477 4.292-3.577-2.065a1.652 1.652 0 00-1.651 2.86l3.576 2.066-2.478 4.29-3.576-2.064a1.652 1.652 0 10-1.652 2.861l3.577 2.065-.97 1.68a.87.87 0 01-1.2.328zm22.136-36.589L62.13 43.28l-14.54-8.395 1.04-1.802a.825.825 0 01.892-.438l13.59 7.845a.825.825 0 01.059.988zm8.069-.481a.347.347 0 01-.47.12l-5.722-3.304a4.046 4.046 0 00-.517-.375l-13.06-7.54a3.95 3.95 0 00-.577-.257l-5.722-3.303a.346.346 0 01-.16-.483l1.38-2.39a.347.347 0 01.466-.13l25.634 14.799a.347.347 0 01.127.474l-1.38 2.389z" fill="#87AD3B"/></g><defs><clipPath id="clip0"><path fill="#fff" transform="rotate(30 28.063 104.731)" d="M0 0h36.891v112.251H0z"/></clipPath></defs></svg>
